svg/business/gift_line.svg

<?xml version="1.0" encoding="UTF-8"?>
<svg width="24px" height="24px" viewBox="0 0 24 24" version="1.1" xmlns="http://www.w3.org/2000/svg" xmlns:xlink="http://www.w3.org/1999/xlink">
    <title>gift_line</title>
    <g id="页面-1" stroke="none" stroke-width="1" fill="none" fill-rule="evenodd">
        <g id="Business" transform="translate(-768.000000, -96.000000)">
            <g id="gift_line" transform="translate(768.000000, 96.000000)">
                <path d="M24,0 L24,24 L0,24 L0,0 L24,0 Z M12.5934901,23.257841 L12.5819402,23.2595131 L12.5108777,23.2950439 L12.4918791,23.2987469 L12.4918791,23.2987469 L12.4767152,23.2950439 L12.4056548,23.2595131 C12.3958229,23.2563662 12.3870493,23.2590235 12.3821421,23.2649074 L12.3780323,23.275831 L12.360941,23.7031097 L12.3658947,23.7234994 L12.3769048,23.7357139 L12.4804777,23.8096931 L12.4953491,23.8136134 L12.4953491,23.8136134 L12.5071152,23.8096931 L12.6106902,23.7357139 L12.6232938,23.7196733 L12.6232938,23.7196733 L12.6266527,23.7031097 L12.609561,23.275831 C12.6075724,23.2657013 12.6010112,23.2592993 12.5934901,23.257841 L12.5934901,23.257841 Z M12.8583906,23.1452862 L12.8445485,23.1473072 L12.6598443,23.2396597 L12.6498822,23.2499052 L12.6498822,23.2499052 L12.6471943,23.2611114 L12.6650943,23.6906389 L12.6699349,23.7034178 L12.6699349,23.7034178 L12.678386,23.7104931 L12.8793402,23.8032389 C12.8914285,23.8068999 12.9022333,23.8029875 12.9078286,23.7952264 L12.9118235,23.7811639 L12.8776777,23.1665331 C12.8752882,23.1545897 12.8674102,23.1470016 12.8583906,23.1452862 L12.8583906,23.1452862 Z M12.1430473,23.1473072 C12.1332178,23.1423925 12.1221763,23.1452606 12.1156365,23.1525954 L12.1099173,23.1665331 L12.0757714,23.7811639 C12.0751323,23.7926639 12.0828099,23.8018602 12.0926481,23.8045676 L12.108256,23.8032389 L12.3092106,23.7104931 L12.3186497,23.7024347 L12.3186497,23.7024347 L12.3225043,23.6906389 L12.340401,23.2611114 L12.337245,23.2485176 L12.337245,23.2485176 L12.3277531,23.2396597 L12.1430473,23.1473072 Z" id="MingCute" fill-rule="nonzero"></path>
                <path d="M9,2 C10.1947,2 11.2671,2.52376 12,3.35418 C12.7329,2.52376 13.8053,2 15,2 L15.5,2 C16.3284,2 17,2.67157 17,3.5 L17,4 C17,4.72857 16.8052,5.41165 16.4649,6 L19,6 C20.1046,6 21,6.89543 21,8 L21,11 C21,11.7403 20.5978,12.3866 20,12.7324 L20,18 C20,19.6569 18.6569,21 17,21 L7,21 C5.34315,21 4,19.6569 4,18 L4,12.7324 C3.4022,12.3866 3,11.7403 3,11 L3,8 C3,6.89543 3.89543,6 5,6 L7.53513,6 C7.19479,5.41165 7,4.72857 7,4 L7,3.5 C7,2.67157 7.67157,2 8.5,2 L9,2 Z M18,13 L13,13 L13,19 L17,19 L17.1166239,18.9932725 C17.5757153,18.9399525 17.9399525,18.5757153 17.9932725,18.1166239 L18,18 L18,13 Z M11,13 L6,13 L6,18 C6,18.51285 6.38604429,18.9355092 6.88337975,18.9932725 L7,19 L11,19 L11,13 Z M19,8 L13,8 L13,11 L19,11 L19,8 Z M11,8 L5,8 L5,11 L11,11 L11,8 Z M9,4 C9,5.10457 9.89543,6 11,6 C11,4.89543 10.1046,4 9,4 Z M15,4 C13.8954,4 13,4.89543 13,6 C14.1046,6 15,5.10457 15,4 Z" id="形状" fill="#09244B"></path>
            </g>
        </g>
    </g>
</svg>

<svg xmlns="http://www.w3.org/2000/svg" width="24" height="24"><g fill="none" fill-rule="evenodd"><path d="M24 0v24H0V0zM12.593 23.258l-.011.002-.071.035-.02.004-.014-.004-.071-.035c-.01-.004-.019-.001-.024.005l-.004.01-.017.428.005.02.01.013.104.074.015.004.012-.004.104-.074.012-.016.004-.017-.017-.427c-.002-.01-.009-.017-.017-.018m.265-.113-.013.002-.185.093-.01.01-.003.011.018.43.005.012.008.007.201.093c.012.004.023 0 .029-.008l.004-.014-.034-.614c-.003-.012-.01-.02-.02-.022m-.715.002a.023.023 0 0 0-.027.006l-.006.014-.034.614c0 .012.007.02.017.024l.015-.002.201-.093.01-.008.004-.011.017-.43-.003-.012-.01-.01z"/><path fill="#09244B" d="M9 2a3.99 3.99 0 0 1 3 1.354A3.99 3.99 0 0 1 15 2h.5A1.5 1.5 0 0 1 17 3.5V4c0 .729-.195 1.412-.535 2H19a2 2 0 0 1 2 2v3a2 2 0 0 1-1 1.732V18a3 3 0 0 1-3 3H7a3 3 0 0 1-3-3v-5.268A2 2 0 0 1 3 11V8a2 2 0 0 1 2-2h2.535A3.982 3.982 0 0 1 7 4v-.5A1.5 1.5 0 0 1 8.5 2zm9 11h-5v6h4l.117-.007a1 1 0 0 0 .876-.876L18 18zm-7 0H6v5a1 1 0 0 0 .883.993L7 19h4zm8-5h-6v3h6zm-8 0H5v3h6zM9 4a2 2 0 0 0 2 2 2 2 0 0 0-2-2m6 0a2 2 0 0 0-2 2 2 2 0 0 0 2-2"/></g></svg>
